static/images/mobile/copyright/wikipedia-wordmark-nah.svg

<?xml version="1.0" encoding="UTF-8"?>
<svg width="120px" height="20px" viewBox="0 0 120 20" version="1.1" xmlns="http://www.w3.org/2000/svg" xmlns:xlink="http://www.w3.org/1999/xlink">
    <title>wikipedia-wordmark-nah</title>
    <g id="Page-1" stroke="none" stroke-width="1" fill="none" fill-rule="evenodd">
        <path d="M20.1937636,6.4751269 C20.1937636,4.95837563 20.4678753,4.86700508 21.8749819,4.81218274 C21.9846265,4.70253807 21.9846265,4.31878173 21.8749819,4.20913706 C21.0160986,4.22741117 20.1279767,4.24568528 19.4079768,4.24568528 C18.6952864,4.24568528 17.9460479,4.22741117 17.2333575,4.20913706 C17.1237128,4.31878173 17.1237128,4.70253807 17.2333575,4.81218274 C18.3298042,4.86700508 18.6404641,4.95837563 18.6404641,6.4751269 L18.6404641,11.7746193 C18.6404641,15.5025381 21.0435098,16.2152284 22.9166062,16.2152284 C26.6627991,16.2152284 27.5582306,13.8944162 27.5582306,10.6416244 L27.5582306,6.4751269 C27.5582306,5.00771596 27.8688905,4.94010152 28.9653372,4.81218274 C29.0749819,4.70253807 29.0749819,4.31878173 28.9653372,4.20913706 C28.270921,4.22741117 27.5253374,4.24568528 27.1013778,4.24568528 C26.7084844,4.24568528 25.82219,4.22741117 24.9815809,4.20913706 C24.8719362,4.31878173 24.8719362,4.70253807 24.9815809,4.81218274 C26.3521392,4.94010152 26.6627991,4.99492386 26.6627991,6.4751269 L26.6627991,10.9705584 C26.6627991,13.0172589 26.3886875,15.4659898 23.3003626,15.4659898 C22.4232052,15.4659898 21.6757942,15.1352283 21.1257433,14.6071066 C20.2303118,13.7482234 20.1937636,12.3593909 20.1937636,11.1715736 L20.1937636,6.4751269 Z M32.6201595,13.8030457 L32.6201595,6.4751269 C32.6201595,4.95837563 32.9308194,4.86700508 34.2100073,4.81218274 C34.3196519,4.70253807 34.3196519,4.31878173 34.2100073,4.20913706 C33.4059463,4.22741117 32.537926,4.24568528 31.8343727,4.24568528 C31.22219,4.24568528 30.3358956,4.22741117 29.4770123,4.20913706 C29.3673677,4.31878173 29.3673677,4.70253807 29.4770123,4.81218274 C30.7562001,4.86700508 31.06686,4.95837563 31.06686,6.4751269 L31.06686,13.8030457 C31.06686,15.319797 30.7562001,15.4111675 29.4770123,15.4659898 C29.3673677,15.5756345 29.3673677,15.9593909 29.4770123,16.0690355 C30.2993474,16.0507614 31.1892965,16.0324873 31.8526468,16.0324873 C32.5032053,16.0324873 33.3876722,16.0507614 34.2100073,16.0690355 C34.3196519,15.9593909 34.3196519,15.5756345 34.2100073,15.4659898 C32.9308194,15.4111675 32.6201595,15.319797 32.6201595,13.8030457 Z M40.6059463,4.66598985 C43.0181291,4.66598985 44.973459,6.67614213 44.973459,10.3675127 C44.973459,13.6385787 43.4018854,15.5573604 41.3186367,15.5573604 C39.0891951,15.5573604 36.9876722,13.5654822 36.9876722,10.0568528 C36.9876722,6.21928934 38.7968093,4.66598985 40.6059463,4.66598985 Z M46.7277737,10.0203046 C46.7277737,6.23756345 44.1145758,4.00812183 40.8435098,4.00812183 C37.3038144,4.00812183 35.2333575,6.82416255 35.2333575,10.3675127 C35.2333575,13.6751269 37.4390427,15.8406091 40.2057434,16.1713707 C39.0928498,16.7543147 38.0749819,17.6186803 37.4189414,18.4062943 C37.2946774,18.5360406 37.1850327,18.6767512 37.0973169,18.8284264 L37.8100073,19.1939086 C38.0256418,18.8869035 38.257723,18.6054823 38.4989412,18.3478172 C38.7566063,18.1760407 39.005134,18.115736 39.1440174,18.115736 C39.9206672,18.115736 40.5894997,18.4665989 41.3003626,18.8722842 C42.1519363,19.3583756 43.0802609,19.8517766 44.3704133,19.8517766 C45.5216824,19.8517766 46.2891951,19.3766497 47.0018854,18.3532995 L46.6912255,18.1340102 C46.2891951,18.6274112 45.631327,18.8101523 45.1013778,18.8101523 C44.3375202,18.8101523 43.6029007,18.4903553 42.8262509,18.1175636 C41.9746772,17.7082233 41.0591441,17.3116751 40.0029007,17.3116751 C39.893256,17.3116751 39.7708192,17.3208122 39.6392459,17.3390863 C40.545642,16.675736 41.4410735,16.2956344 42.0368091,16.1275126 C43.5572154,15.8716751 44.7815809,15.0767515 45.5984339,13.9126904 C46.3257433,12.8765483 46.7277737,11.5553299 46.7277737,10.0203046 Z M50.528789,6.4751269 C50.528789,4.95837563 50.8029007,4.86700508 52.2100073,4.81218274 C52.3196519,4.70253807 52.3196519,4.31878173 52.2100073,4.20913706 C51.351124,4.22741117 50.4630021,4.24568528 49.7430022,4.24568528 C49.0303118,4.24568528 48.2810732,4.22741117 47.5683829,4.20913706 C47.4587382,4.31878173 47.4587382,4.70253807 47.5683829,4.81218274 C48.6648296,4.86700508 48.9754895,4.95837563 48.9754895,6.4751269 L48.9754895,11.7746193 C48.9754895,15.5025381 51.3785352,16.2152284 53.2516316,16.2152284 C56.9978245,16.2152284 57.893256,13.8944162 57.893256,10.6416244 L57.893256,6.4751269 C57.893256,5.00771596 58.2039159,4.94010152 59.3003626,4.81218274 C59.4100073,4.70253807 59.4100073,4.31878173 59.3003626,4.20913706 C58.6059463,4.22741117 57.8603628,4.24568528 57.4364032,4.24568528 C57.0435098,4.24568528 56.1572154,4.22741117 55.3166062,4.20913706 C55.2069616,4.31878173 55.2069616,4.70253807 55.3166062,4.81218274 C56.6871646,4.94010152 56.9978245,4.99492386 56.9978245,6.4751269 L56.9978245,10.9705584 C56.9978245,13.0172589 56.7237128,15.4659898 53.635388,15.4659898 C52.7582306,15.4659898 52.0108195,15.1352283 51.4607687,14.6071066 C50.5653372,13.7482234 50.528789,12.3593909 50.528789,11.1715736 L50.528789,6.4751269 Z M62.9551849,13.8030457 L62.9551849,6.4751269 C62.9551849,4.95837563 63.2658448,4.86700508 64.5450326,4.81218274 C64.6546773,4.70253807 64.6546773,4.31878173 64.5450326,4.20913706 C63.7409717,4.22741117 62.8729514,4.24568528 62.1693981,4.24568528 C61.5572154,4.24568528 60.670921,4.22741117 59.8120377,4.20913706 C59.702393,4.31878173 59.702393,4.70253807 59.8120377,4.81218274 C61.0912255,4.86700508 61.4018854,4.95837563 61.4018854,6.4751269 L61.4018854,13.8030457 C61.4018854,15.319797 61.0912255,15.4111675 59.8120377,15.4659898 C59.702393,15.5756345 59.702393,15.9593909 59.8120377,16.0690355 C60.6343727,16.0507614 61.5243219,16.0324873 62.1876722,16.0324873 C62.8382307,16.0324873 63.7226976,16.0507614 64.5450326,16.0690355 C64.6546773,15.9593909 64.6546773,15.5756345 64.5450326,15.4659898 C63.2658448,15.4111675 62.9551849,15.319797 62.9551849,13.8030457 Z M68.3460479,5.90862944 C68.3460479,5.3786802 68.6201595,4.73908629 69.9358956,4.73908629 C71.1968093,4.73908629 72.457723,5.15939086 72.457723,7.48020305 C72.457723,9.45380711 71.5074692,10.257868 69.7348803,10.257868 C69.2780276,10.257868 68.5470631,10.2213198 68.3460479,10.1664975 L68.3460479,5.90862944 Z M66.7927484,6.4751269 L66.7927484,13.8030457 C66.7927484,15.319797 66.4820885,15.4111675 65.2029007,15.4659898 C65.093256,15.5756345 65.093256,15.9593909 65.2029007,16.0690355 C66.0252357,16.0507614 66.9261494,16.0324873 67.5785352,16.0324873 C68.2254386,16.0324873 69.2963017,16.0507614 70.2100073,16.0690355 C70.3196519,15.9593909 70.3196519,15.5756345 70.2100073,15.4659898 C68.7846265,15.3928934 68.3460479,15.319797 68.3460479,13.8030457 L68.3460479,10.6964467 C68.7480783,10.8243655 69.186657,10.8791878 69.8262509,10.8791878 C73.1521392,10.8791878 74.1572154,8.70456853 74.1572154,7.15126904 C74.1572154,6.07309645 73.444525,4.1177665 70.0638144,4.1177665 C69.3639158,4.1177665 68.2912255,4.24568528 67.5602611,4.24568528 C66.8896012,4.24568528 65.9338651,4.22741117 65.2029007,4.20913706 C65.093256,4.31878173 65.093256,4.70253807 65.2029007,4.81218274 C66.4820885,4.86700508 66.7927484,4.95837563 66.7927484,6.4751269 Z M79.9135606,9.43553299 L78.2506164,9.43553299 L78.2506164,6.14619289 C78.2506164,5.34213198 78.4699057,4.97664975 79.4567078,4.97664975 L80.8272661,4.97664975 C82.1978245,4.97664975 82.4902103,5.70761421 82.8922408,6.96852792 C83.1188396,7.0014211 83.3162004,6.96304591 83.4952864,6.87715736 C83.4039159,6.12791878 83.1298042,4.37360406 83.093256,4.22741117 C83.093256,4.19086294 83.0749819,4.17258883 83.0201595,4.17258883 C82.7094996,4.22741117 82.5633067,4.24568528 82.1247281,4.24568528 L77.4648296,4.24568528 C76.9074692,4.24568528 75.8384336,4.22741117 75.1074692,4.20913706 C74.9978245,4.31878173 74.9978245,4.70253807 75.1074692,4.81218274 C76.386657,4.86700508 76.6973169,4.95837563 76.6973169,6.4751269 L76.6973169,13.8030457 C76.6973169,15.319797 76.386657,15.4111675 75.1074692,15.4659898 C74.9978245,15.5756345 74.9978245,15.9593909 75.1074692,16.0690355 C75.7836113,16.0507614 76.880058,16.0324873 77.4831037,16.0324873 L81.4120377,16.0324873 C82.2891951,16.0324873 83.751124,16.0690355 83.751124,16.0690355 C84.0069616,15.1553299 84.2810732,13.9492386 84.4272661,13.0172589 C84.2372149,12.9094417 84.0270632,12.8674112 83.7876722,12.9258883 C83.42219,14.2416244 82.7825961,15.319797 81.3937636,15.319797 L79.2739666,15.319797 C78.506454,15.319797 78.2506164,15.0274112 78.2506164,14.1685279 L78.2506164,10.1299492 L79.9135606,10.1299492 C81.46686,10.1299492 81.5216824,10.5502538 81.5765047,11.3725888 C81.6861494,11.4822335 82.0699057,11.4822335 82.1795504,11.3725888 C82.1612763,10.8974619 82.1430022,10.3912688 82.1430022,9.76446701 C82.1430022,9.25279188 82.1612763,8.63147208 82.1795504,8.1928934 C82.0699057,8.08324873 81.6861494,8.08324873 81.5765047,8.1928934 C81.5216824,9.19796954 81.46686,9.43553299 79.9135606,9.43553299 Z M88.4475707,14.4974619 L88.4475707,5.72588832 C88.4475707,5.08629442 89.0871646,4.83045685 89.9825961,4.83045685 C93.9298042,4.83045685 95.2272661,8.0284264 95.2272661,10.8426396 C95.2272661,14.5340102 93.0160986,15.4477157 90.4394489,15.4477157 C88.6485859,15.4477157 88.4475707,15.0822335 88.4475707,14.4974619 Z M87.6617839,4.24568528 C87.0093982,4.24568528 86.035388,4.22741117 85.3044235,4.20913706 C85.1947788,4.31878173 85.1947788,4.70253807 85.3044235,4.81218274 C86.5836113,4.86700508 86.8942712,4.95837563 86.8942712,6.4751269 L86.8942712,13.8030457 C86.8942712,15.319797 86.5836113,15.4111675 85.3044235,15.4659898 C85.1947788,15.5756345 85.1947788,15.9593909 85.3044235,16.0690355 C86.0171139,16.0507614 86.9911241,16.0324873 87.680058,16.0324873 C88.3562001,16.0324873 89.1237128,16.0690355 91.0059463,16.0690355 C93.5825961,16.0690355 96.9815809,14.8994924 96.9815809,10.4040609 C96.9815809,7.00507614 94.1856418,4.20913706 90.6770123,4.20913706 C89.3795504,4.20913706 88.3744743,4.24568528 87.6617839,4.24568528 Z M101.257723,13.8030457 L101.257723,6.4751269 C101.257723,4.95837563 101.568383,4.86700508 102.847571,4.81218274 C102.957215,4.70253807 102.957215,4.31878173 102.847571,4.20913706 C102.04351,4.22741117 101.175489,4.24568528 100.471936,4.24568528 C99.8597534,4.24568528 98.973459,4.22741117 98.1145758,4.20913706 C98.0049311,4.31878173 98.0049311,4.70253807 98.1145758,4.81218274 C99.3937636,4.86700508 99.7044235,4.95837563 99.7044235,6.4751269 L99.7044235,13.8030457 C99.7044235,15.319797 99.3937636,15.4111675 98.1145758,15.4659898 C98.0049311,15.5756345 98.0049311,15.9593909 98.1145758,16.0690355 C98.9369108,16.0507614 99.82686,16.0324873 100.49021,16.0324873 C101.140769,16.0324873 102.025236,16.0507614 102.847571,16.0690355 C102.957215,15.9593909 102.957215,15.5756345 102.847571,15.4659898 C101.568383,15.4111675 101.257723,15.319797 101.257723,13.8030457 Z M14.7045685,13.0598985 L14.7045685,3.2893401 C14.7045685,1.26700508 15.1187817,1.14517766 16.8243655,1.07208122 C16.9705584,0.925888325 16.9705584,0.414213198 16.8243655,0.268020305 C15.8253807,0.292385787 14.5827411,0.316751269 13.6568528,0.316751269 C12.7480206,0.316751269 11.5857868,0.292385787 10.5137056,0.268020305 C10.3675127,0.414213198 10.3675127,0.925888325 10.5137056,1.07208122 C12.2192893,1.14517766 12.6335025,1.26700508 12.6335025,3.2893401 L12.6335025,7.18781726 L4.30050761,7.18781726 L4.30050761,3.2893401 C4.30050761,1.26700508 4.71472081,1.14517766 6.42030457,1.07208122 C6.56649746,0.925888325 6.56649746,0.414213198 6.42030457,0.268020305 C5.49441624,0.292385787 4.49543147,0.316751269 3.25279188,0.316751269 C2.03451777,0.316751269 1.03553299,0.292385787 0.10964467,0.268020305 C-0.0365482233,0.414213198 -0.0365482233,0.925888325 0.10964467,1.07208122 C1.81522843,1.14517766 2.22944162,1.26700508 2.22944162,3.2893401 L2.22944162,13.0598985 C2.22944162,15.0822335 1.81522843,15.2040609 0.10964467,15.2771574 C-0.0365482233,15.4233503 -0.0365482233,15.9350254 0.10964467,16.0812183 C1.18172589,16.0568528 2.35857875,16.0324873 3.27715736,16.0324873 C4.16162444,16.0324873 5.34822335,16.0568528 6.42030457,16.0812183 C6.56649746,15.9350254 6.56649746,15.4233503 6.42030457,15.2771574 C4.71472081,15.2040609 4.30050761,15.0822335 4.30050761,13.0598985 L4.30050761,8.21116751 L12.6335025,8.21116751 L12.6335025,13.0598985 C12.6335025,15.0822335 12.2192893,15.2040609 10.5137056,15.2771574 C10.3675127,15.4233503 10.3675127,15.9350254 10.5137056,16.0812183 C11.6101523,16.0568528 12.7772595,16.0324873 13.6812183,16.0324873 C14.5900505,16.0324873 15.7522843,16.0568528 16.8243655,16.0812183 C16.9705584,15.9350254 16.9705584,15.4233503 16.8243655,15.2771574 C15.1187817,15.2040609 14.7045685,15.0822335 14.7045685,13.0598985 Z M109.608122,9.13705584 C109.072081,9.13705584 108.901523,9.06395939 108.994112,8.81299522 L111.484264,2.50964467 L111.630457,2.50964467 L113.920812,9.13705584 L109.608122,9.13705584 Z M106.97665,14.1076142 L108.316751,10.5746193 C108.438579,10.257868 108.584772,10.1604061 109.169543,10.1604061 L114.31066,10.1604061 L115.723858,14.2781726 C116.01137,15.1187817 115.080609,15.1943149 113.920812,15.2771574 C113.774619,15.4233503 113.774619,15.9350254 113.920812,16.0812183 C114.822335,16.0568528 116.162437,16.0324873 117.11269,16.0324873 C118.111675,16.0324873 119.037563,16.0568528 119.890355,16.0812183 C120.036548,15.9350254 120.036548,15.4233503 119.890355,15.2771574 C118.944975,15.1918782 118.121422,15.1114724 117.697462,13.9370558 L112.678173,0 C112.31269,0.21928934 111.654822,0.487309645 111.338071,0.487309645 L105.807107,13.5472081 C105.173604,15.057868 104.430457,15.2040609 103.370558,15.2771574 C103.224365,15.4233503 103.224365,15.9350254 103.370558,16.0812183 C104.004061,16.0568528 104.800812,16.0324873 105.539086,16.0324873 C106.538071,16.0324873 107.756345,16.0568528 108.657868,16.0812183 C108.804061,15.9350254 108.804061,15.4233503 108.657868,15.2771574 C107.741726,15.213807 106.596548,15.1090357 106.97665,14.1076142 Z" id="wikipedia-wordmark-nah" fill="#000000" fill-rule="nonzero"></path>
    </g>
</svg>

<svg xmlns="http://www.w3.org/2000/svg" width="120" height="20"><path fill="#000" fill-rule="nonzero" d="M20.194 6.475c0-1.517.274-1.608 1.681-1.663.11-.11.11-.493 0-.603-.859.018-1.747.037-2.467.037a86.3 86.3 0 0 1-2.175-.037c-.11.11-.11.494 0 .603 1.097.055 1.407.146 1.407 1.663v5.3c0 3.728 2.404 4.44 4.277 4.44 3.746 0 4.641-2.32 4.641-5.573V6.475c0-1.467.31-1.535 1.407-1.663.11-.11.11-.493 0-.603-.694.018-1.44.037-1.864.037-.393 0-1.279-.019-2.12-.037-.11.11-.11.494 0 .603 1.371.128 1.682.183 1.682 1.663v4.496c0 2.046-.274 4.495-3.363 4.495-.877 0-1.624-.33-2.174-.859-.896-.859-.932-2.248-.932-3.435V6.475Zm12.426 7.328V6.475c0-1.517.31-1.608 1.59-1.663.11-.11.11-.493 0-.603-.804.018-1.672.037-2.376.037-.612 0-1.498-.019-2.357-.037-.11.11-.11.494 0 .603 1.28.055 1.59.146 1.59 1.663v7.328c0 1.517-.31 1.608-1.59 1.663-.11.11-.11.493 0 .603.822-.018 1.712-.037 2.376-.037.65 0 1.535.019 2.357.037.11-.11.11-.493 0-.603-1.28-.055-1.59-.146-1.59-1.663Zm7.986-9.137c2.412 0 4.367 2.01 4.367 5.702 0 3.27-1.571 5.19-3.654 5.19-2.23 0-4.331-1.993-4.331-5.501 0-3.838 1.809-5.391 3.618-5.391Zm6.122 5.354c0-3.782-2.613-6.012-5.884-6.012-3.54 0-5.61 2.816-5.61 6.36 0 3.307 2.205 5.473 4.972 5.803a9.61 9.61 0 0 0-2.787 2.235c-.124.13-.234.27-.322.422l.713.366a7.79 7.79 0 0 1 .689-.846c.258-.172.506-.232.645-.232.777 0 1.445.35 2.156.756.852.486 1.78.98 3.07.98 1.152 0 1.92-.475 2.632-1.499l-.31-.219c-.403.493-1.06.676-1.59.676-.764 0-1.5-.32-2.276-.692-.851-.41-1.767-.806-2.823-.806-.11 0-.232.009-.364.027.907-.663 1.802-1.043 2.398-1.211 1.52-.256 2.745-1.051 3.561-2.215.728-1.036 1.13-2.358 1.13-3.893Zm3.8-3.545c0-1.517.275-1.608 1.682-1.663.11-.11.11-.493 0-.603-.859.018-1.747.037-2.467.037a86.3 86.3 0 0 1-2.175-.037c-.11.11-.11.494 0 .603 1.097.055 1.407.146 1.407 1.663v5.3c0 3.728 2.404 4.44 4.277 4.44 3.746 0 4.641-2.32 4.641-5.573V6.475c0-1.467.31-1.535 1.407-1.663.11-.11.11-.493 0-.603-.694.018-1.44.037-1.864.037-.392 0-1.279-.019-2.12-.037-.109.11-.109.494 0 .603 1.371.128 1.682.183 1.682 1.663v4.496c0 2.046-.274 4.495-3.363 4.495-.877 0-1.624-.33-2.174-.859-.896-.859-.932-2.248-.932-3.435V6.475Zm12.427 7.328V6.475c0-1.517.31-1.608 1.59-1.663.11-.11.11-.493 0-.603-.804.018-1.672.037-2.376.037-.612 0-1.498-.019-2.357-.037-.11.11-.11.494 0 .603 1.28.055 1.59.146 1.59 1.663v7.328c0 1.517-.31 1.608-1.59 1.663-.11.11-.11.493 0 .603.822-.018 1.712-.037 2.376-.037.65 0 1.535.019 2.357.037.11-.11.11-.493 0-.603-1.28-.055-1.59-.146-1.59-1.663Zm5.391-7.894c0-.53.274-1.17 1.59-1.17 1.26 0 2.522.42 2.522 2.741 0 1.974-.95 2.778-2.723 2.778-.457 0-1.188-.037-1.389-.092V5.91Zm-1.553.566v7.328c0 1.517-.31 1.608-1.59 1.663-.11.11-.11.493 0 .603.822-.018 1.723-.037 2.376-.037.646 0 1.717.019 2.631.037.11-.11.11-.493 0-.603-1.425-.073-1.864-.146-1.864-1.663v-3.107c.402.128.84.183 1.48.183 3.326 0 4.331-2.174 4.331-3.728 0-1.078-.712-3.033-4.093-3.033-.7 0-1.773.128-2.504.128-.67 0-1.626-.019-2.357-.037-.11.11-.11.494 0 .603 1.28.055 1.59.146 1.59 1.663Zm13.12 2.96h-1.662V6.147c0-.804.219-1.17 1.206-1.17h1.37c1.37 0 1.663.732 2.065 1.993.227.032.424-.006.603-.092a64.15 64.15 0 0 0-.402-2.65c0-.036-.018-.054-.073-.054-.31.054-.457.073-.895.073h-4.66c-.558 0-1.627-.019-2.358-.037-.11.11-.11.494 0 .603 1.28.055 1.59.146 1.59 1.663v7.328c0 1.517-.31 1.608-1.59 1.663-.11.11-.11.493 0 .603.677-.018 1.773-.037 2.376-.037h3.929c.877 0 2.34.037 2.34.037.255-.914.53-2.12.675-3.052a.842.842 0 0 0-.64-.091c-.365 1.316-1.004 2.394-2.393 2.394h-2.12c-.768 0-1.023-.293-1.023-1.151v-4.04h1.663c1.553 0 1.608.421 1.663 1.244.11.11.493.11.603 0a39.523 39.523 0 0 1-.037-1.609c0-.511.018-1.133.037-1.571-.11-.11-.494-.11-.603 0-.055 1.005-.11 1.243-1.663 1.243Zm8.535 5.062V5.726c0-.64.64-.896 1.535-.896 3.947 0 5.244 3.198 5.244 6.013 0 3.691-2.21 4.605-4.788 4.605-1.79 0-1.991-.366-1.991-.95Zm-.786-10.251c-.653 0-1.627-.019-2.358-.037-.11.11-.11.494 0 .603 1.28.055 1.59.146 1.59 1.663v7.328c0 1.517-.31 1.608-1.59 1.663-.11.11-.11.493 0 .603a105.08 105.08 0 0 1 2.376-.037c.676 0 1.444.037 3.326.037 2.577 0 5.976-1.17 5.976-5.665 0-3.399-2.796-6.195-6.305-6.195-1.297 0-2.303.037-3.015.037Zm13.596 9.557V6.475c0-1.517.31-1.608 1.59-1.663.11-.11.11-.493 0-.603-.804.018-1.673.037-2.376.037-.612 0-1.499-.019-2.357-.037-.11.11-.11.494 0 .603 1.279.055 1.59.146 1.59 1.663v7.328c0 1.517-.311 1.608-1.59 1.663-.11.11-.11.493 0 .603.822-.018 1.712-.037 2.375-.037.65 0 1.535.019 2.358.037.11-.11.11-.493 0-.603-1.28-.055-1.59-.146-1.59-1.663Zm-86.553-.743V3.29c0-2.023.414-2.145 2.12-2.218.146-.146.146-.658 0-.804-1 .024-2.242.049-3.168.049-.909 0-2.071-.025-3.143-.049-.146.146-.146.658 0 .804 1.705.073 2.12.195 2.12 2.217v3.899H4.3V3.289c0-2.022.414-2.144 2.12-2.217.145-.146.145-.658 0-.804-.927.024-1.926.049-3.168.049C2.035.317 1.036.292.11.268c-.147.146-.147.658 0 .804 1.705.073 2.12.195 2.12 2.217v9.77c0 2.023-.415 2.145-2.12 2.218-.147.146-.147.658 0 .804 1.072-.024 2.249-.049 3.167-.049.885 0 2.071.025 3.143.05.146-.147.146-.659 0-.805-1.705-.073-2.12-.195-2.12-2.217V8.21h8.334v4.849c0 2.022-.415 2.144-2.12 2.217-.146.146-.146.658 0 .804 1.096-.024 2.263-.049 3.167-.049.91 0 2.071.025 3.143.05.147-.147.147-.659 0-.805-1.705-.073-2.12-.195-2.12-2.217Zm94.903-3.923c-.536 0-.706-.073-.614-.324l2.49-6.303h.146l2.29 6.627h-4.312Zm-2.631 4.97 1.34-3.532c.122-.317.268-.415.853-.415h5.14l1.414 4.118c.287.84-.643.916-1.803 1-.146.145-.146.657 0 .803.901-.024 2.241-.049 3.192-.049a95.4 95.4 0 0 1 2.777.05c.147-.147.147-.659 0-.805-.945-.085-1.769-.166-2.193-1.34L112.678 0c-.365.22-1.023.487-1.34.487l-5.53 13.06c-.634 1.51-1.378 1.657-2.437 1.73-.147.146-.147.658 0 .804.633-.024 1.43-.049 2.168-.049 1 0 2.217.025 3.119.05.146-.147.146-.659 0-.805-.916-.063-2.061-.168-1.681-1.17Z"/></svg>
